app/dist/common/images/smartbroker-ag.svg

<svg height="18" viewBox="0 0 18 18" width="18" xmlns="http://www.w3.org/2000/svg"><path d="m0 0h18v18h-18z" fill="#181b1e"/><path d="m3 10.95c.58.65 1.89 1.05 3.1 1.05 1.6 0 2.9-.7 2.9-1.9 0-1.3-1.4-1.53-2.52-1.72-.92-.16-1.48-.24-1.48-.68 0-.35.52-.74 1.15-.74.77 0 1.35.28 1.79.74l1.01-.74a3.86 3.86 0 0 0 -2.75-.96c-1.54 0-2.75.7-2.75 1.83-.01 1.17 1.15 1.44 2.21 1.64 1.07.2 1.84.27 1.84.7s-.63.78-1.3.78c-.78 0-1.55-.31-2.14-.9zm11.5-2.49v-2.46h.5v6h-.5v-3h-3v3h-.5v-6h.5v2.46z" fill="#fff"/></svg>

<!-- by TradingView --><svg width="18" height="18" viewBox="0 0 18 18" xmlns="http://www.w3.org/2000/svg"><path fill="#181B1E" d="M0 0h18v18H0z"/><path d="M3 10.95C3.58 11.6 4.89 12 6.1 12c1.6 0 2.9-.7 2.9-1.9 0-1.3-1.4-1.53-2.52-1.72C5.56 8.22 5 8.14 5 7.7c0-.35.52-.74 1.15-.74.77 0 1.35.28 1.79.74l1.01-.74A3.86 3.86 0 0 0 6.2 6c-1.54 0-2.75.7-2.75 1.83C3.44 9 4.6 9.27 5.66 9.47c1.07.2 1.84.27 1.84.7 0 .43-.63.78-1.3.78-.78 0-1.55-.31-2.14-.9l-1.06.9ZM14.5 8.46V6h.5v6h-.5V9h-3v3H11V6h.5v2.46h3Z" fill="#fff"/></svg>
